X: 1
T: Mopsi Dn
M: 6/8
L: 1/8
R: jig
K: Gmaj
|:FGA A2B|A2B AFD|GFG BcB|GFG BcB|
FGA A2B|A2B AFD|GAB c2B|AGF G2G:|
|:dBd cAc|BGB AFD|G2G BAG|F2G A2A|
dBd cAc|BGB AFD|BAG edc|AGF G2G:|
